X: 1
T:Glebe Park  "The Boxall Collection"
M:C|
L:1/8
Q:80
C:Wm J. Boxall
S:March
K:HP
|: {Gdc}d3/4e/4|
{g}f{AGAG}A{g}B3/2d/2|
{g}A3/4d/4{G}d3/4e/4{g}fa3/4f/4|  !
{g}e3/4c/4{G}c3/4e/4{gcd}c{g}e3/4c/4|
{g}A3/4{d}c/4{g}e3/4f/4{gf}ga3/4g/4| |
{a}f{AGAG}A{g}B3/2d/2|  !
{g}A3/4d/4{G}d3/4e/4{g}fe3/4f/4|
{a}g3/4f/4{g}e3/4c/4{g}A/4a3/4g3/4e/4|
{g}f{Gdc}d{gdG}d:| |:  !
{g}f3/4g/4|
{ag}a3/2f/2{Gdc}df|
{g}A3/4d/4{G}d3/4f/4{ag}ae3/4f/4|  !
{a}g3/4e/4{A}e3/4g/4{acd}c{g}e3/4c/4|
{g}A3/4{d}c/4{g}e3/4f/4{gf}g|1 f3/4g/4| |
|1 {ag}a3/2f/2{Gdc}df|  !
{g}A3/4d/4{G}d3/4f/4{ag}ae3/4f/4|
{a}g3/4f/4{g}e3/4c/4{g}A/4a3/4g3/4e/4|
{g}f{Gdc}d{gdG}d:| |:  !
{g}A3/4B/4|
{Gdc}d{e}A{g}f3/2d/2|
{g}f3/4d/4{G}d3/4A/4{ag}ag3/4e/4|  !
{g}c3/4{d}A/4{e}A3/4{d}c/4{gef}e{g}c3/4e/4|
{g}e3/4A/4{d}c/4e3/4{gf}gf3/4e/4| |
{Gdc}d{e}A{g}f3/2d/2|  !
{g}f3/4d/4{G}d3/4A/4{ag}ae3/4f/4|
{a}g3/4f/4{g}e3/4c/4{g}A/4a3/4g3/4e/4|
{g}f{Gdc}d{gdG}d:| |:  !
a3/4g/4|
{a}f{Gdc}d{ag}a3/2g/2|
{a}f/4a3/4{g}a3/4f/4{Gdc}d{g}c3/4d/4|  !
{g}e3/4c/4{G}c3/4e/4{gf}ge3/4d/4|
{g}c3/4d/4{g}e3/4c/4{G}A|1 a3/4g/4| |
|1 {a}f{Gdc}d{ag}a3/2g/2|  !
{a}f/4a3/4{g}a3/4f/4{Gdc}d{g}e3/4f/4|
{a}g3/4f/4{g}e3/4c/4{g}A/4a3/4g3/4e/4|
{g}f{Gdc}d{gdG}d:|  !
